!!!COM: Fe/licien David
!!!CNT: Francais
!!!TXO: Francais
!!!OTL: Qui T'aime Plus que Moi?
!!!LYR: Emile Barateau
!!!ENC: Jacob Pegg
!!!YOR: Romantic French Song 1830-1870, David Tunley, ed., New York: Garland Publishing, Inc., 1995
!!!ODT: 1847/
!!NB: Vocal melody and text only encoded.
!!NB: Only first strophe encoded.
**kern	**silbe
*clef G2	*
*k[b-]	*
*M2/4	*
=1	=1
2r	.
=2	=2
2r	.
=3	=3
2r	.
=4	=4
2r	.
=5	=5
4r	.
{8a	{Toi
8g	qui
=6	=6
8b-	sous
8a	ta
8g	man-
8e	-te
=7	=7
8g	gri-
16f}	-se,}
16r	.
{8cc	{Pa-
8bn	-rais
=8	=8
8dd	tou-
8cc	-jours
8.ff	la
16dd	mieux
=9	=9
8bn	mi-
16cc}	-se,}
16r	.
{8cc	{Pau-
8cc#	-vre
=10	=10
8dd	fil-
(16ccn	-le
16b)	|
8a	de
8a	Ve-
=11	=11
8b	-ni-
16a}	-se,}
16r	.
{8g	{La
8dd	plus
=12	=12
8cc	bel-
8ff	-le...
8f	c'est
(aq	bien
8g)	|
=13	=13
4f}	Toi!...}
4r	.
=14	=14
2r	.
=15	=15
4r	.
{8g	{Aus-
8ee	-si,
=16	=16
8ee	dans
8dd	notre
8g	I-
8dd	-ta-
=17	=17
8dd	-li-
8cc}	-e,}
{8g	{Bru-
8a	-ne
=18	=18
8g	fleur,
(16f	toi
16e)	|
8f	si
8g	jo-
=19	=19
8f	-li-
8e}	-e,}
{8g	{Cha-
8ee	-cun
=20	=20
8ee	t'aime
8dd	a\
8g	la
8dd	fo-
=21	=21
8dd	-li-
8cc}	-e,}
{8g	{Moins
8a	en-
=22	=22
8cc	-co-
(16bn	-re
16cc)	|
8dd	moins
8ee	que
=23	=23
[2cc	moi!
=24	=24
2cc_	|
=25	=25
4cc]}	|}
{8a	{Pre\s
8g	de
=26	=26
8b-	toi
8a	ri-
8g	-ante
8e	est
=27	=27
8g	l'heu-
16f}	-re;}
16r	.
{8cc	{Mais
8bn	quand
=28	=28
8dd	la
8cc	bri-
8.ff	-se
16dd	t'ef-
=29	=29
8bn	-fleu-
16cc}	-re,}
16r	.
{8cc	{Je
8cc#	suis
=30	=30
8dd	ja-
(16ccn	-loux,
16b-)	|
8a	et
8a	je
=31	=31
8b-	pleu-
8a}	-re...}
{8g	{Dis,
8dd	qui
=32	=32
(8cc;	t'ai-
ffq)	me...
8ff;	|
8f	plus
(aq	que
8g)	|
=33	=33
4f}	moi?}
4r	.
*-	*-
